X:1
T:St. John’s College, CM
T:St. John’s College, CM
T:George Mursell Garrett, 1872
T:Public Domain Courtesy of the Cyber Hymnal™
C:George Mursell Garrett, 1872
Z:Public Domain
Z:Courtesy of the Cyber Hymnal™
%%score ( 1 2 ) ( 3 4 )
L:1/8
Q:1/4=112
M:4/4
K:Eb
V:1 treble 
V:2 treble 
V:3 bass 
V:4 bass 
V:1
 [EB]2 | [Cc]2 [FB]2 [Ee]2 [EG]2 | [EA]2 [EG]2 [Ec]2 [DF]2 | [EB]2 E2 [FA]2 [EG]2 | [DF]6 [EG]2 | %5
 [EA]2 [=EG]2 [Fc]2 F2 | [DG]2 [DF]2 [EB]2 E2 | [DA]2 [EG]2 [EF]2 [DF]2 | E6 |] %9
V:2
 x2 | x8 | x8 | x2 E2 x4 | x8 | x6 (F_E) | x6 E2 | x8 | E6 |] %9
V:3
 [E,G,]2 | [E,G,]2 [D,F,]2 [C,G,]2 [C,C]2 | [C,A,]2 [B,,B,]2 [A,,C]2 [A,B,]2 | %3
 [G,B,]2 [C,C]2 [D,B,]2 [E,B,]2 | [B,,B,]6 B,2 | [C,A,]2 [B,,_D]2 [A,,C]2 [A,,C]2 | %6
 [B,,B,]2 [A,,B,]2 [G,,B,]2 [C,G,]2 | [F,,F,A,]2 [G,,G,B,]2 [A,,A,C]2 (B,A,) | [E,G,]6 |] %9
V:4
 x2 | x8 | x8 | x8 | x6 (E,_D,) | x8 | x8 | x6 B,,2 | x6 |] %9

